**kern	**kern	**dynam
*part1	*part1	*part1
*staff2	*staff1	*
*I"Piano	*	*
*clefF4	*clefF4	*
*k[b-e-]	*k[b-e-]	*
=1	=1	=1
(8DDL 8D	(8F#XL	.
8DDJ) 8AA	8F#J) 8A	.
8r	8r	.
=	=	=
(8GGL	8DL [8B-	.
8EE-J) 8E-	8GJ 8B-]	.
8r	8r	.
=	=	=
(8DDL 8D	(8FnL 8B-	>
8BBB-J) 8BB-	8DJ) 8d	]
8r	8r	.
=	=	=
8AAAL 8AA	(8EnL 8A 8d	.
8AAAJ	8EJ) 8A 8c#X	.
8r	8r	.
=	=	=
8DDDL 8DD	(8DL 8A 8d	.
8DDJ	8DJ) 8A	.
8r	8r	.
*	*clefG2	*
=	=	=
*^	*	*
!	!	!LO:TX:b:i:t=dolce	!
8A-XL 8B-	8r	(16a-XKL 16b-	.
.	.	8a- 8b-	.
8A- 8B-	(8FL	.	.
.	.	8a- 8b-	.
8A-J 8B-	8E-	.	.
.	.	[16a-Jk [16b-	.
=	=	=	=
8A-XL 8B-	8D	16a-KL] 16b-]	.
.	.	8a-X 8b-	.
8A- 8B-	8FJ)	.	.
.	.	8a- 8b-	.
8A-J 8B-	8r	.	.
.	.	16a-Jk) 16b-	.
*v	*v	*	*
=	=	=
*-	*-	*-
!!!system-decoration: {(s1,s2)}
